X: 10401
Q: "Andante Espressivo"
M: 3/8
L: 1/16
K: F
(FG) | A4 B G | F2 A2 c2 | d2 B2 f2 |
(c2A2) (f/e/f/d/) | c2 a2 f2 | (c=B) _B2 A2 |
(A2G2) G G | A2 G2 F2 | B2 A2 G2 | (c>A) f2 e2 |
{e/}(d2c2) zc | c2 d2 e2 | (^c/d/f/d/) c2 =B2 | Hc4 =B _B |
(e2f2) a>g | f3 (cde) | f2f2f2 | "_Da Capo"f4 |]



